X:45
T: Kerry Cow
S: "Johnny O'Leary of Sliabh Luachra" (#342)
Z: B.Black
L: 1/8
M: 2/4
R: polka
K: D
dc/d/ fd|cA AE/A/|BG GA/G/|BA AF/A/|
de fd|cA AF/A/|GB AF|D2 D2 :|
A>B AG|FA dE/F/|G>F GF|EF GF/G/|
A>G AG|Ad dc/d/|cA G/A/G/E/|D2 D2 :|
